!!!!SEGMENT: pl-kc--40102-iii-1-saf--001-032_zielenski-mikolaj--offertoria-totius-anni-in-festo-assumptionis-b-m-v-assumpta-est-maria.krn
!!!cenid: 16xx:1510
!!!COM: Zieleński, Mikołaj
!!!COM-rismid: pe30013481
!!!CDT:
!!!CNT: Polish
!!!GTL: Offertoria totius anni
!!!OTL: In festo Assumptionis B. M. V./Assumpta est Maria
!!!OMV: 032
!!!PDT: 1611
!!!AGN:
!!!SMS-siglum: PL-Kc
!!!SMS-shelfmark: 40102 III/1 Saf.
!!!SMS-shelfwork: 001-032 G
!!!SMS-variant:
!!!SMS-altvar:
!!!NIFC-rismid: 990069886
!!!URL-scan: https://cyfrowe.mnk.pl/dlibra/publication/24235/edition/23926/content?ref=desc
!!!ONB-nifc: UWAGA: str. 29-30. Uwaga: W xml metrum 2/1 do źródłowego C| i odpowiednio 3/1 do 3/2
!!!key: C:ion
**kern	**kern	**kern	**kern
*group1	*group1	*group1	*group1
*part4	*part3	*part2	*part1
*staff4	*staff3	*staff2	*staff1
*I""Organo	*I	*I	*
*Iorgan	*Iorgan	*Iorgan	*Iorgan
*clefF4	*clefC1	*clefC4	*clefG2
*k[]	*k[]	*k[]	*k[]
*C:ion	*C:ion	*C:ion	*C:ion
*M2/1	*M2/1	*M2/1	*M2/1
*met(C|)	*met(C|)	*met(C|)	*met(C|)
=1	=1	=1	=1
!LO:TX:t=P:problem=all/middle&colon; global	!LO:TX:t=P:problem=all/middle&colon; global	!LO:TX:t=P:problem=all/middle&colon; global	!LO:TX:t=P:problem=all/middle&colon; global
!LO:TX:t=P:problem=all\middle&colon; global	!LO:TX:t=P:problem=all\middle&colon; global	!LO:TX:t=P:problem=all\middle&colon; global	!LO:TX:t=P:problem=all\middle&colon; global
!	!	!LO:TX:a:t=Aſſumpta eſt Maria.	!
*	*	*	*met(c|)
!	!	!	!LO:TX:a:t=In feſto Aſſumptionis B   M.   V.     A|8.
00r	00r	1c	1r
.	.	2c\	1cc
.	.	2d\	.
=2-	=2-	=2-	=2-
.	.	1C	2cc\
.	.	.	2dd\
.	.	2C/	2ee\
.	.	2D/	2ff\
=3	=3	=3	=3
00r	00r	2E/	2gg\
.	.	2F/	4ff\
.	.	.	4ee\
.	.	0G	2dd\
.	.	.	2cc\
=4-	=4-	=4-	=4-
.	.	.	1dd
.	.	1C	2cc\
.	.	.	2g/
=5	=5	=5	=5
00r	00r	1G	2g/
.	.	.	2a/
.	.	2G/	2b/
.	.	2A/	2cc\
=6-	=6-	=6-	=6-
.	.	2B\	2g/
.	.	1c	2cc\
.	.	.	2cc\
.	.	2B\	2dd\
=7	=7	=7	=7
00r	00r	2c\	2ee\
.	.	2C/	2ee\
.	.	1F	1ff
=8-	=8-	=8-	=8-
.	.	1C	2ee\
.	.	.	2ee\
.	.	2r	1gg
.	.	2C/	.
=9	=9	=9	=9
00r	00r	1G	2dd\
.	.	.	2dd\
.	.	2D/	1ff
.	.	2D/	.
=10-	=10-	=10-	=10-
.	.	2.A/	2cc\
.	.	.	2cc\
.	.	4B\	.
.	.	2c\	1ee
.	.	2C/	.
=11	=11	=11	=11
0r	00r	2G/	2.dd\
.	.	2G/	.
.	.	.	8cc\
.	.	.	8b\
.	.	0D	2a/
.	.	.	2b/
=12-	=12-	=12-	=12-
1r	.	.	1a
1G	.	1G	1b
=13	=13	=13	=13
2G\	1g	00r	00r
2A\	.	.	.
1GG	2g/	.	.
.	2a\	.	.
=14-	=14-	=14-	=14-
2GG/	2b\	.	.
2AA/	2cc\	.	.
2BB/	2dd\	.	.
2C/	4cc\	.	.
.	4b\	.	.
=15	=15	=15	=15
1D	2.a\	00r	00r
.	4g/	.	.
2D/	2a\	.	.
2BB/	2b\	.	.
=16-	=16-	=16-	=16-
1AA	1cc	.	.
2GG/	1b	.	.
2G\	.	.	.
*custos:G	*custos:a	*custos:c	*custos:ee
!	!LO:TX:t=P:problem=błędny kustosz	!	!
!LO:LB:g=original	!LO:LB:g=original	!LO:LB:g=original	!LO:LB:g=original
=17	=17	=17	=17
2G\	2r	00r	00r
2F\	2dd\	.	.
2E\	2dd\	.	.
2E\	2cc\	.	.
=18-	=18-	=18-	=18-
2.D/	2b\	.	.
.	2a\	.	.
8C/	.	.	.
8BB/	.	.	.
4AA/	1cc	.	.
4BB/	.	.	.
4C/	.	.	.
4D/	.	.	.
=19	=19	=19	=19
4E\	2g/	00r	00r
4F#X\	.	.	.
2.G\	2g/	.	.
.	2.dd\	.	.
8F#X\	.	.	.
8E\	.	.	.
2F#\	.	.	.
.	4cc\	.	.
=20-	=20-	=20-	=20-
2G\	4b\	.	.
.	4g/	.	.
2C/	2.cc\	.	.
1GG	.	.	.
.	8b\	.	.
.	8a\	.	.
.	2b\	.	.
=21	=21	=21	=21
*M3/1	*M3/1	*M3/1	*M3/1
*met(3/2)	*met(3/2)	*met(3/2)	*met(3/2)
0.C	0.cc	1%3r	1%3r
=22-	=22-	=22-	=22-
0.r	0.r	0c	0ee
.	.	1G	1dd
=23	=23	=23	=23
00.r	00.r	0A	0cc
.	.	1E	1b
=24-	=24-	=24-	=24-
.	.	0F	0a
.	.	1D	1b
=25	=25	=25	=25
0.r	0.r	0.C	0.cc
=26-	=26-	=26-	=26-
0C	0cc	0.r	0.r
1GG	1b	.	.
=27-	=27-	=27-	=27-
0D	0a	00.r	00.r
1GG	1g	.	.
=28-	=28-	=28-	=28-
0D	0g	.	.
1DD	1f#X	.	.
=29	=29	=29	=29
!	!LO:TX:t=P:problem=pauza skasowana nawiasem	!	!
0.GG	0.g	1%3r	1%3r
=30-	=30-	=30-	=30-
0GG	0dd	0D	0gg
1D	1dd	1D	1ff
=31-	=31-	=31-	=31-
0AA	0cc#X	0E	0ee
1FF	1dd	1A	1dd
=32-	=32-	=32-	=32-
0GG	0b-X	1.G	0dd
.	.	2F/	.
1AA	1a	1E	1cc#X
=33	=33	=33	=33
*M2/1	*M2/1	*M2/1	*M2/1
*met(C|)	*met(C|)	*met(C|)	*met(C|)
2DD/	2a\	1D	1dd
4D/	4a\	.	.
4GG/	4b\	.	.
2C/	2cc\	1r	1r
2GG/	2b\	.	.
=34-	=34-	=34-	=34-
0r	0r	4G/	4dd\
.	.	4C/	4ee\
.	.	2F/	2ff\
.	.	1C	1ee
=35	=35	=35	=35
*M3/1	*M3/1	*M3/1	*M3/1
*met(3/2)	*met(3/2)	*met(3/2)	*met(3/2)
!	!	!	!LO:TX:t=P:problem=do końca 37 taktu nuty zaczernione
00.r	00.r	0c	0gg
.	.	1F	1ff
=36-	=36-	=36-	=36-
.	.	0C	0ee
.	.	1D	0dd
=37-	=37-	=37-	=37-
00.r	00.r	1.E	.
.	.	.	1cc
.	.	2F/	.
.	.	1G	1b
=38-	=38-	=38-	=38-
.	.	0.C	0.cc
=39	=39	=39	=39
!	!LO:TX:t=do końca 41 taktu nuty zaczernione	!	!
0G	0dd	00.r	00.r
1C	1cc	.	.
=40-	=40-	=40-	=40-
0GG	0b	.	.
1AA	0a	.	.
=41-	=41-	=41-	=41-
1.BB	.	0.r	0.r
.	1g	.	.
2C/	.	.	.
1D	1f#X	.	.
=42-	=42-	=42-	=42-
*M2/1	*M2/1	*M2/1	*M2/1
*met(C|)	*met(C|)	*met(C|)	*met(C|)
2GG/	2g/	2r	2r
4GG/	4b\	4G/	4dd\
4C/	4cc\	4C/	4ee\
!LO:TX:t=P:problem=kreska pseudotaktowa	!LO:TX:t=P:problem=kreska pseudotaktowa	!LO:TX:t=P:problem=kreska pseudotaktowa	!LO:TX:t=P:problem=kreska pseudotaktowa
2FF/	2cc\	2C/	2ff\
1C/	1cc\	1E/	1ee\
=43-	=43-	=43-	=43-
.	.	.	.
4GG/	4b\	4D/	4gg\
4DD/	4dd\	4D/	4ff\
2AA/	2cc#X\	2E/	2ee\
2DD/	2dd\	2F#X/	2dd\
=44-	=44-	=44-	=44-
*M3/1	*M3/1	*M3/1	*M3/1
*met(3/2)	*met(3/2)	*met(3/2)	*met(3/2)
00.r	00.r	0G	0dd
.	.	1C	1ee
=45	=45	=45	=45
.	.	0F	0cc
.	.	1G	1b
=46-	=46-	=46-	=46-
0.r	0.r	0d	0a
.	.	1D	1a
=47-	=47-	=47-	=47-
0.r	0.r	0.G	0.b
=48-	=48-	=48-	=48-
!LO:TX:b:t=Partitura Nicolai Zielenski.	!	!	!
0GG	0b	0D	0gg
1EE	1cc	1E	1gg
=49	=49	=49	=49
0FF	0cc	0C	0ff
1CC	1cc	1C	1ee
=50-	=50-	=50-	=50-
0GG	1.cc	0D	0dd
.	4b\	.	.
.	4a\	.	.
1GG	1b	1D	1dd
=51-	=51-	=51-	=51-
*M2/1	*M2/1	*M2/1	*M2/1
*met(C|)	*met(C|)	*met(C|)	*met(C|)
1CC	1cc	1C	1ee
1r	1r	1c	1cc
=52	=52	=52	=52
0r	0r	2c\	2cc\
.	.	2B\	2dd\
.	.	2A/	2ee\
.	.	2A/	2ff#X\
=53-	=53-	=53-	=53-
1GG	1dd	0G	1gg
2GG/	2dd\	.	2.dd\
2AA/	2cc\	.	.
.	.	.	4dd\
=54	=54	=54	=54
2BB/	1b	2.G/	2dd\
2C/	.	.	2ee\
.	.	4G/	.
1D	1a	2D/	2ff\
.	.	2E/	2gg\
=55-	=55-	=55-	=55-
!LO:TX:b:t=D    3	!	!	!
!LO:N:vis=1	!	!	!
1.DD	1a	2F/	1aa
.	.	2G/	.
.	2dd\	1A	2ff\
2DD/	2dd\	.	2ff\
*custos:AA	*custos:cc	*custos:A	*custos:ee
!LO:PB:g=original	!LO:PB:g=original	!LO:PB:g=original	!LO:PB:g=original
=56	=56	=56	=56
1AA	4r	2A/	1ee
.	8cc#X\	.	.
.	8b\	.	.
.	2cc#\	2A/	.
2DD/	1dd	1A	1dd
2D/	.	.	.
=57-	=57-	=57-	=57-
2D/	1dd	2A/	1r
2C/	.	2E/	.
2BB/	2dd\	2G/	1dd
2AA/	2cc#\	2A/	.
=58	=58	=58	=58
1GG	2b\	1.D	2dd\
.	2b\	.	2ee\
1DD	1dd	.	2ff#X\
.	.	2D/	2ff#\
=59-	=59-	=59-	=59-
1GG	2dd\	1D	2.gg\
.	2b\	.	.
.	.	.	4ff#\
1CC	[>1cc	[>1C	2ee\
.	.	.	2ee\
=60	=60	=60	=60
!LO:N:vis=1	!	!	!
1.FF	1cc]	1C]	2.ff\
.	.	.	4ee\
.	2b\	1C	4dd\
.	.	.	4cc\
2CC/	2g/	.	1cc\
=61-	=61-	=61-	=61-
0GG	0g	0D	.
.	.	.	4b/
.	.	.	4a/
.	.	.	2b/
.	.	.	2b/
=62	=62	=62	=62
*M3/1	*M3/1	*M3/1	*M3/1
*met(3/2)	*met(3/2)	*met(3/2)	*met(3/2)
0.CC	0.a	0.C	0.cc
=63-	=63-	=63-	=63-
0.r	0.r	0c	0ee
.	.	1G	1dd
=64-	=64-	=64-	=64-
00.r	00.r	0A	0cc
.	.	1E	1b
=65-	=65-	=65-	=65-
.	.	0F	0a
.	.	1D	1b
=66	=66	=66	=66
0.r	0.r	0.C	0.cc
=67-	=67-	=67-	=67-
0C	0cc	0.r	0.r
1GG	1b	.	.
=68-	=68-	=68-	=68-
0D	0a	00.r	00.r
1GG	1g	.	.
=69-	=69-	=69-	=69-
0D	0g	.	.
1DD	1f#X	.	.
=70	=70	=70	=70
0.GG	0.g	0.r	0.r
=71-	=71-	=71-	=71-
0GG	0dd	0D	0gg
1D	1dd	1D	1ff
=72-	=72-	=72-	=72-
0AA	0cc#X	0E	0ee
1FF	1dd	1A	1dd
=73-	=73-	=73-	=73-
0GG	0b-X	1.G	0dd
.	.	2F/	.
1AA	1a	1E	1cc#X
=74	=74	=74	=74
*M2/1	*M2/1	*M2/1	*M2/1
*met(C|)	*met(C|)	*met(C|)	*met(C|)
2DD/	2a\	1D	1dd
4D/	4a\	.	.
4GG/	4b\	.	.
2C/	2cc\	1r	1r
2GG/	2b\	.	.
=75-	=75-	=75-	=75-
0r	0r	4G/	4dd\
.	.	4C/	4ee\
.	.	2F/	2ff\
.	.	1C	1ee
=76	=76	=76	=76
*M3/1	*M3/1	*M3/1	*M3/1
*met(3/2)	*met(3/2)	*met(3/2)	*met(3/2)
!	!	!	!LO:TX:t=P:problem=do końca 78 taktu nuty zaczernione
00.r	00.r	0c	0gg
.	.	1F	1ff
=77-	=77-	=77-	=77-
.	.	0C	0ee
.	.	1D	0dd
=78-	=78-	=78-	=78-
00.r	00.r	1.E	.
.	.	.	1cc
.	.	2F/	.
.	.	1G	1b
=79-	=79-	=79-	=79-
.	.	0.C	0.cc
=80	=80	=80	=80
!	!LO:TX:t=P:problem=do końca 82 taktu nuty zaczernione	!	!
0G	0dd	00.r	00.r
1C	1cc	.	.
=81-	=81-	=81-	=81-
0GG	0b	.	.
1AA	0a	.	.
=82-	=82-	=82-	=82-
1.BB	.	0.r	0.r
.	1g	.	.
2C/	.	.	.
1D	1f	.	.
=83-	=83-	=83-	=83-
*M2/1	*M2/1	*M2/1	*M2/1
*met(C|)	*met(C|)	*met(C|)	*met(C|)
2GG/	2g/	2r	2r
4GG/	4b\	4G/	4dd\
4C/	4cc\	4C/	4ee\
!LO:TX:t=P:problem=kreska pseudotaktowa	!LO:TX:t=P:problem=kreska pseudotaktowa	!LO:TX:t=P:problem=kreska pseudotaktowa	!LO:TX:t=P:problem=kreska pseudotaktowa
2FF/	2cc\	2C/	2ff\
1C/	1cc\	1E/	1ee\
=84-	=84-	=84-	=84-
4GG/	4b\	4D/	4gg\
4DD/	4dd\	4D/	4ff\
2AA/	2cc#X\	2E/	2ee\
2DD/	2dd\	2F#X/	2dd\
=85-	=85-	=85-	=85-
*M3/1	*M3/1	*M3/1	*M3/1
*met(3/2)	*met(3/2)	*met(3/2)	*met(3/2)
0.r	0.r	0G	0dd
.	.	1C	1ee
=86	=86	=86	=86
00.r	00.r	0F	0cc
.	.	1G	1b
=87-	=87-	=87-	=87-
.	.	0d	0a
.	.	1D	1a
=88-	=88-	=88-	=88-
0.r	0.r	0.G	0.b
=89-	=89-	=89-	=89-
0GG	0b	0D	0gg
1EE	1cc	1E	1gg
=90	=90	=90	=90
0FF	0cc	0C	0ff
1CC	1cc	1C	1ee
=91-	=91-	=91-	=91-
0GG	1.cc	0D	0dd
.	4b\	.	.
.	4a\	.	.
1GG	1b	1D	1dd
=92-	=92-	=92-	=92-
*M2/1	*M2/1	*M2/1	*M2/1
*met(C|)	*met(C|)	*met(C|)	*met(C|)
1CC	1cc	1C	1ee
2r	2r	2r	2r
[>2GG/	[>2b\	[>2D/	[>2gg\
=93	=93	=93	=93
2GG/]	2b\]	2D/]	2gg\]
2EE/	2cc\	2E/	2gg\
1.FF	1cc	1.C	1.ff
=94-	=94-	=94-	=94-
.	2cc\	.	.
2CC/	1cc	2C/	2ee\
1.GG	.	1.D	1.dd
.	4b\	.	.
.	4a\	.	.
=95-	=95-	=95-	=95-
.	2b\	.	.
2GG/	2b\	2D/	2dd\
[1CCl/	[1ccl\	[1Cl/	[1eel\
=96-	=96-	=96-	=96-
0CC_	0cc_	0C_	0ee_
=97-	=97-	=97-	=97-
1CC]	1cc]	1C]	1ee]
==	==	==	==
*-	*-	*-	*-
!!!system-decoration: g1
!!!RDF**kern: > = above
!!!RDF**kern: < = below
!!!RDF**kern: l = terminal long
!!!AIN: 4 organ
!!!ENC: Filip Voros
!!!END: 2021-12-14
!!!EED: Jędrzej Mróz
!!!EST: 2021-12-21
